X:1
T:Let thy hand be strengthened - Blow
T:James Gibb editions
T:#
%%score [ 1 2 3 4 ]
L:1/8
Q:1/4=120
M:3/4
K:F
V:1 treble nm="Soprano" snm="S"
V:2 treble nm="Alto" snm="A"
V:3 treble-8 nm="Tenor" snm="T"
V:4 bass nm="Bass" snm="B"
V:1
"^Let thy hand be strengthened""^John Blow\n(1649-1708)""^Psalm 89:14-15" z2"^For the coronation of James II 1685" c2 A2 | %1
w: Let thy|
 d4 c2 | (A3 G) F2 | z2 c2 A2 | d4 c2- | c2 (de) f2 | (e3 d) c2 | z2 c2 A2 | d4 c2 | (A3 G) F2 | %10
w: hand be|streng­ * then'd|and thy|right hand|* be * ex-|alt­ * ed,|Let thy|hand be|streng­ * then'd|
 z2 c2 A2 | d4 _e2- | e2 c3 B | A4 G2 | z2 z2 =B2 | c2 c2 _A2 | F2 F2 B2- | Bc _A3 A | _A4 G2 | %19
w: and thy|right hand|* be ex-|alt- ed,|Let|jus- tice and|judg- ment be|* the pre- pa-|ra- tion|
 (c2 =B3) c | d4 d2 | d3 d _e2- | e2 f4 | (_e2 d2) c2 | c4 c2 | A3 B c2 | B4 B2- | BA A3 G | %28
w: of * thy|seat, the|pre- pa- ra-|* tion|of * thy|seat, Let|mer- cy and|truth go|* be- fore thy|
 G4 c2 | A3 B c2 | B4 A2 | G2 G3 F | F2 c2 d2 | c3 (B A2) | z4 z2 | z6 | z2 c2 d2 | c3 (BAB) | %38
w: face, Let|mer- cy and|truth go|be- fore thy|face. Al- le-|lu- jah, *|||al- le-|lu- jah, * *|
 c3 d =B2 | c6- | c6- | c6- | c6 | z2 c2 f2 | e3 d c2- | c2 B3 B | A3 B G2 | G2 (G3 F) | F2 c2 f2 | %49
w: al- le- lu-|jah,||||* al­le-|lu- jah, *|* al- le-|lu- jah, al-|le- lu­ *|jah, al- le-|
 e3 (d c2- | c2) B3 B | A3 B G2 | G2 (G3 F) | F6 |] %54
w: lu- jah, *|* al- le-|lu- jah, al-|le- lu­ *|jah.|
V:2
 z2 F2 F2 | F4 E2 | F4 C2 | z2 F2 A2 | G2 F4 | F4 G2 | G4 G2 | z2 F2 F2 | F4 E2 | F4 C2 | %10
w: Let thy|hand be|streng- then'd|and thy|right hand|be ex-|alt- ed,|Let thy|hand be|streng- then'd|
 z2 F2 A2 | G4 G2- | G2 A3 G | ^F4 G2 | z2 z2 G2 | G2 _E2 F2 | F2 F2 G2- | G_A F3 F | F4 _E2- | %19
w: and thy|right hand|* be ex-|alt- ed,|Let|jus- tice and|judg- ment be|* the pre- pa-|ra- tion|
 E2 _A2 F2 | G4 G2 | G4 G2 | _A4 A2 | G4 G2 | G4 E2 | F3 G A2 | G4 G2 | (FE) F3 G | E4 E2 | %29
w: * of thy|seat, the|pre- pa-|ra- tion|of thy|seat, Let|mer- cy and|truth go|be­ * fore thy|face, Let|
 F3 F _E2 | (D2 =E2) F2- | FG E3 F | F2 A2 F2 | F4 F2 | z2 F2 D2 | F4 F2 | z2 F2 F2 | F3 (G A2) | %38
w: mer- cy and|truth * go|* be- fore thy|face. Al- le-|lu- jah,|al- le-|lu- jah,|al- le-|lu- jah, *|
 G2 F2 D2 | E2 E2 A2 | G3 (F E2) | (F2 G2) A2 | (G3 F E2) | F6 | (G2 F2) E2 | (F2 G2) E2 | F4 F2- | %47
w: al- le- lu-|jah, al- le-|lu- jah, *|al­ * le-|lu­ * *|jah,|al­ * le-|lu­ * jah,|al- le­|
 F2 (E3 F) | F6 | (G2 F2) E2 | (F2 G2) E2 | F4 F2- | F2 E4 | F6 |] %54
w: * lu­ *|jah,|al­ * le-|lu­ * jah,|al- le­|* lu-|jah.|
V:3
 z2 A2 c2 | B4 G2 | (d2 cB) A2 | z2 f2 c2 | d4 _e2- | e2 d2 =B2 | c4 G2 | z2 A2 c2 | B4 G2 | %9
w: Let thy|hand be|streng­ * * then'd|and thy|right hand|* be ex-|alt- ed,|Let thy|hand be|
 (d2 cB) A2 | z2 f2 c2 | d4 (cB) | (AG ^F2) G2 | d4 d2 | z2 z2 d2 | c2 c2 c2 | d2 d2 _e2- | %17
w: streng­ * * then'd|and thy|right hand *|be * * ex-|alt- ed,|Let|jus- tice and|judg- ment be|
 e_e c3 c | d4 _e2- | e2 (f_e) (dc) | =B4 B2 | =B3 B c2- | c2 d4 | (c2 =B2) c2 | c4 c2 | c3 d c2 | %26
w: * the pre- pa-|ra- tion|* of * thy *|seat, the|pre- pa- ra­|* tion|of * thy|seat, Let|mer- cy and|
 c4 c2- | cc c3 c | c4 G2 | A3 G A2 | (F2 G2) A2 | d2 c3 G | A2 F2 B2 | A3 (G F2) | z2 A2 F2 | %35
w: truth go|* be- fore thy|face, Let|mer- cy and|truth * go|be- fore thy|face. Al- le-|lu- jah, *|al- le-|
 c4 A2 | z2 A2 B2 | c4 F2 | G2 A2 (GF) | G2 c2 f2 | e3 (dcB | A2) G2 F2 | (G3 A) B2 | (c2 B2) A2 | %44
w: lu- jah,|al- le-|lu- jah,|al- le- lu­ *|jah, al- le-|lu- jah, * *|* al- le-|lu­ * jah,|al­ * le-|
 G4 G2 | A2 G4 | A2 F2 d2 | c2 B3 A | A2 (AB) c2 | (cB A2) G2 | A2 G4 | F4 d2- | dc (B3 A) | A6 |] %54
w: lu- jah,|al- le-|lu- jah, al-|le- lu- jah,|al- le­ * lu-|jah, * * al-|le- lu-|jah, al­|* le- lu­ *|jah.|
V:4
 z2 F,2 F,,2 | B,,4 C,2 | (D,3 E,) F,2 | z2 A,2 F,2 | B,4 A,2- | A,2 B,2 G,2 | C4 C,2 | %7
w: Let thy|hand be|streng­ * then'd|and thy|right hand|* be ex-|alt- ed,|
 z2 F,2 F,,2 | B,,4 C,2 | (D,3 E,) F,2 | z2 A,2 F,2 | B,4 C,2- | C,2 C,3 C, | D,4 G,,2 | %14
w: Let thy|hand be|streng­ * then'd|and thy|right hand|* be ex-|alt- ed,|
 z2 z2 G,2 | _A,2 A,2 F,2 | B,2 B,2 G,2- | G,G, _A,3 A, | B,4 _E,2 | _A,,2 A,,4 | G,,4 G,2 | %21
w: Let|jus- tice and|judg- ment be|* the pre- pa-|ra- tion|of thy|seat, the|
 F,4 _E,2 | (_A,2 G,2) F,2 | G,2 G,,4 | C,4 C,2 | F,3 F, F,2 | E,4 E,2- | E,C, F,2 F,,2 | C,4 C,2 | %29
w: pre- pa-|ra­ * tion|of thy|seat, Let|mer- cy and|truth go|* be- fore thy|face, Let|
 F,3 F, A,,2 | B,,4 F,,2 | B,,2 C,3 C, | F,,4 z2 | z6 | z2 F,,2 B,,2 | A,,3 (G,, F,,2) | %36
w: mer- cy and|truth go|be- fore thy|face.||al- le-|lu- jah, *|
 z2 F,2 B,2 | A,3 G, F,2 | E,2 (D,2 G,2) | C,6- | C,6- | C,2 C,2 F,2 | E,3 (D,C,B,, | %43
w: al- le-|lu- jah, al-|le- lu­ *|jah,||* al- le-|lu- jah, * *|
 A,,2) G,,2 F,,2 | (C,3 D,) E,2 | (D,2 E,2) C,2 | F,3 F, B,,2 | B,,2 C,4 | F,2 (F,,G,,) (A,,F,,) | %49
w: * al- le-|lu­ * jah,|al­ * le-|lu- jah, al-|le- lu-|jah, al­ * le­ *|
 (C,2 D,2) E,2 | (D,2 E,2) C,2 | F,3 F, B,,2 | B,,2 C,4 | F,,6 |] %54
w: lu­ * jah,|al­ * le-|lu- jah, al-|le- lu-|jah.|

